img/main-block-title.svg

<svg width="899" height="467" viewBox="0 0 899 467" fill="none" xmlns="http://www.w3.org/2000/svg">
<path d="M98.208 2.20008V103H70.128V68.7281C62.352 71.3201 55.2 72.6161 48.672 72.6161C34.56 72.6161 23.76 69.2561 16.272 62.5361C8.88 55.7201 5.184 45.9281 5.184 33.1601V2.20008H33.264V29.9921C33.264 42.9521 39.6 49.4321 52.272 49.4321C59.184 49.4321 65.136 48.2801 70.128 45.9761V2.20008H98.208Z" fill="#222222"/>
<path d="M203.16 24.8081H172.344V103H144.264V24.8081H113.304V2.20008H203.16V24.8081Z" fill="#222222"/>
<path d="M266.594 105.016C255.938 105.016 246.338 102.76 237.794 98.2481C229.346 93.7361 222.674 87.4961 217.778 79.5281C212.978 71.5601 210.578 62.5841 210.578 52.6001C210.578 42.6161 212.978 33.6401 217.778 25.6721C222.674 17.7041 229.346 11.4641 237.794 6.95208C246.338 2.44008 255.938 0.184082 266.594 0.184082C277.25 0.184082 286.802 2.44008 295.25 6.95208C303.794 11.4641 310.466 17.7041 315.266 25.6721C320.162 33.6401 322.609 42.6161 322.609 52.6001C322.609 62.5841 320.162 71.5601 315.266 79.5281C310.466 87.4961 303.794 93.7361 295.25 98.2481C286.802 102.76 277.25 105.016 266.594 105.016ZM266.594 81.4001C271.682 81.4001 276.29 80.2001 280.418 77.8001C284.546 75.4001 287.81 72.0401 290.21 67.7201C292.61 63.3041 293.81 58.2641 293.81 52.6001C293.81 46.9361 292.61 41.9441 290.21 37.6241C287.81 33.2081 284.546 29.8001 280.418 27.4001C276.29 25.0001 271.682 23.8001 266.594 23.8001C261.506 23.8001 256.898 25.0001 252.77 27.4001C248.642 29.8001 245.378 33.2081 242.978 37.6241C240.578 41.9441 239.378 46.9361 239.378 52.6001C239.378 58.2641 240.578 63.3041 242.978 67.7201C245.378 72.0401 248.642 75.4001 252.77 77.8001C256.898 80.2001 261.506 81.4001 266.594 81.4001Z" fill="#222222"/>
<path d="M0 117.4H327.074V124.6H0V117.4Z" fill="#222222"/>
<path d="M193.24 225.296C199.192 227.216 203.704 230.192 206.776 234.224C209.944 238.256 211.528 243.248 211.528 249.2C211.528 258.128 208.024 265.184 201.016 270.368C194.104 275.456 184.264 278 171.496 278H119.8V177.2H168.76C180.856 177.2 190.216 179.504 196.84 184.112C203.56 188.624 206.92 195.056 206.92 203.408C206.92 208.304 205.72 212.624 203.32 216.368C201.016 220.112 197.656 223.088 193.24 225.296ZM147.88 217.52H166.024C174.088 217.52 178.12 214.208 178.12 207.584C178.12 200.96 174.088 197.648 166.024 197.648H147.88V217.52ZM170.344 257.552C178.6 257.552 182.728 254.048 182.728 247.04C182.728 240.224 178.6 236.816 170.344 236.816H147.88V257.552H170.344Z" fill="#222222"/>
<path d="M280.524 209.312C292.908 209.312 302.46 212.096 309.18 217.664C315.9 223.136 319.26 231.296 319.26 242.144C319.26 253.76 315.516 262.64 308.028 268.784C300.54 274.928 290.124 278 276.78 278H229.116V177.2H257.196V209.312H280.524ZM274.908 257.552C279.708 257.552 283.5 256.256 286.284 253.664C289.164 251.072 290.604 247.424 290.604 242.72C290.604 233.984 285.372 229.616 274.908 229.616H257.196V257.552H274.908ZM330.348 177.2H358.428V278H330.348V177.2Z" fill="#222222"/>
<path d="M382.307 177.2H466.548V199.232H410.388V215.504H436.452C448.644 215.504 458.004 218.096 464.532 223.28C471.06 228.464 474.324 235.904 474.324 245.6C474.324 255.776 470.676 263.744 463.38 269.504C456.084 275.168 445.86 278 432.708 278H382.307V177.2ZM430.836 257.552C435.636 257.552 439.284 256.592 441.78 254.672C444.276 252.752 445.523 250.016 445.523 246.464C445.523 239.36 440.628 235.808 430.836 235.808H410.388V257.552H430.836Z" fill="#222222"/>
<path d="M537.282 177.2C546.402 177.2 554.322 178.736 561.042 181.808C567.762 184.784 572.946 189.104 576.594 194.768C580.242 200.336 582.066 206.912 582.066 214.496C582.066 222.08 580.242 228.656 576.594 234.224C572.946 239.792 567.762 244.112 561.042 247.184C554.322 250.16 546.402 251.648 537.282 251.648H519.714V278H491.202V177.2H537.282ZM535.554 229.184C541.41 229.184 545.826 227.936 548.802 225.44C551.778 222.848 553.266 219.2 553.266 214.496C553.266 209.792 551.778 206.144 548.802 203.552C545.826 200.96 541.41 199.664 535.554 199.664H519.714V229.184H535.554Z" fill="#222222"/>
<path d="M661.633 258.416H619.009L611.089 278H582.001L626.497 177.2H654.577L699.217 278H669.553L661.633 258.416ZM653.281 237.392L640.321 205.136L627.361 237.392H653.281Z" fill="#222222"/>
<path d="M789.082 199.808H758.266V278H730.186V199.808H699.226V177.2H789.082V199.808Z" fill="#222222"/>
<path d="M855.793 209.312C868.177 209.312 877.729 212.096 884.449 217.664C891.169 223.136 894.529 231.296 894.529 242.144C894.529 253.76 890.785 262.64 883.297 268.784C875.809 274.928 865.393 278 852.049 278H804.385V177.2H832.465V209.312H855.793ZM850.177 257.552C854.977 257.552 858.769 256.256 861.553 253.664C864.433 251.072 865.873 247.424 865.873 242.72C865.873 233.984 860.641 229.616 850.177 229.616H832.465V257.552H850.177Z" fill="#222222"/>
<path d="M109 292.4H898.129V299.6H109V292.4Z" fill="#222222"/>
<path d="M700.528 408.28C700.528 403.48 701.584 399.544 703.696 396.472C705.808 393.304 708.88 389.848 712.912 386.104C715.696 383.512 717.76 381.352 719.104 379.624C720.448 377.8 721.12 375.88 721.12 373.864C721.12 371.08 719.92 368.872 717.52 367.24C715.216 365.512 712.192 364.648 708.448 364.648C704.608 364.648 701.104 365.56 697.936 367.384C694.864 369.208 692.368 371.752 690.448 375.016L668.992 363.496C672.928 356.776 678.496 351.544 685.696 347.8C692.896 344.056 701.584 342.184 711.76 342.184C723.184 342.184 732.352 344.584 739.264 349.384C746.272 354.088 749.776 360.712 749.776 369.256C749.776 373.192 749.104 376.696 747.76 379.768C746.416 382.744 744.784 385.288 742.864 387.4C741.04 389.416 738.64 391.72 735.664 394.312C732.4 397.096 730 399.496 728.464 401.512C726.928 403.432 726.16 405.688 726.16 408.28H700.528ZM713.344 446.296C708.64 446.296 704.752 444.856 701.68 441.976C698.608 439 697.072 435.4 697.072 431.176C697.072 426.856 698.56 423.304 701.536 420.52C704.608 417.736 708.544 416.344 713.344 416.344C718.144 416.344 722.08 417.736 725.152 420.52C728.224 423.304 729.76 426.856 729.76 431.176C729.76 435.4 728.224 439 725.152 441.976C722.08 444.856 718.144 446.296 713.344 446.296Z" fill="#222222"/>
<path d="M670 459.4H755.968V466.6H670V459.4Z" fill="#222222"/>
</svg>

<svg width="899" height="467" fill="none" xmlns="http://www.w3.org/2000/svg"><path d="M98.2 2.2V103h-28V68.7c-7.8 2.6-15 4-21.5 4-14.1 0-25-3.4-32.4-10.2C8.9 55.7 5.2 46 5.2 33.2v-31h28V30c0 13 6.4 19.4 19 19.4 7 0 13-1.1 18-3.4V2.2h28ZM203.2 24.8h-30.9V103h-28V24.8h-31V2.2h89.9v22.6ZM266.6 105a60.7 60.7 0 0 1-28.8-6.8 51.5 51.5 0 0 1-20-18.7c-4.8-8-7.2-17-7.2-26.9 0-10 2.4-19 7.2-27 4.9-7.9 11.5-14.1 20-18.6A60.7 60.7 0 0 1 266.6.2c10.6 0 20.2 2.2 28.6 6.8a50.2 50.2 0 0 1 27.4 45.6 50.4 50.4 0 0 1-27.4 45.6c-8.4 4.6-18 6.8-28.6 6.8Zm0-23.6a26 26 0 0 0 23.6-13.7c2.4-4.4 3.6-9.4 3.6-15.1 0-5.7-1.2-10.7-3.6-15a25.8 25.8 0 0 0-23.6-13.8A25.8 25.8 0 0 0 243 37.6a30.3 30.3 0 0 0-3.6 15c0 5.7 1.2 10.7 3.6 15.1a26 26 0 0 0 23.6 13.7ZM0 117.4h327v7.2H0v-7.2ZM193.2 225.3c6 2 10.5 4.9 13.6 9 3.1 4 4.7 9 4.7 14.9 0 9-3.5 16-10.5 21.2-6.9 5-16.7 7.6-29.5 7.6h-51.7V177.2h49c12 0 21.4 2.3 28 7 6.8 4.4 10.1 10.9 10.1 19.2a23.5 23.5 0 0 1-13.7 21.9Zm-45.3-7.8H166c8 0 12.1-3.3 12.1-10 0-6.5-4-9.9-12-9.9h-18.2v20Zm22.4 40c8.3 0 12.4-3.5 12.4-10.5 0-6.8-4.1-10.2-12.4-10.2H148v20.8h22.4ZM280.5 209.3c12.4 0 22 2.8 28.7 8.4 6.7 5.4 10 13.6 10 24.4 0 11.7-3.7 20.5-11.2 26.7a48 48 0 0 1-31.2 9.2H229V177.2h28.1v32.1h23.3Zm-5.6 48.3a16 16 0 0 0 11.4-4 14 14 0 0 0 4.3-10.9c0-8.7-5.2-13-15.7-13h-17.7v27.9h17.7Zm55.4-80.4h28.1V278h-28V177.2ZM382.3 177.2h84.2v22h-56.1v16.3h26c12.2 0 21.6 2.6 28.1 7.8a26.8 26.8 0 0 1 9.8 22.3c0 10.2-3.6 18.1-11 23.9a49 49 0 0 1-30.6 8.5h-50.4V177.2Zm48.5 80.4c4.8 0 8.5-1 11-3 2.5-1.8 3.7-4.6 3.7-8.1 0-7.1-4.9-10.7-14.7-10.7h-20.4v21.8h20.4ZM537.3 177.2c9.1 0 17 1.5 23.7 4.6 6.8 3 12 7.3 15.6 13a35.2 35.2 0 0 1 5.5 19.7c0 7.6-1.9 14.2-5.5 19.7a35.9 35.9 0 0 1-15.6 13c-6.7 3-14.6 4.4-23.7 4.4h-17.6V278h-28.5V177.2h46Zm-1.7 52c5.8 0 10.2-1.3 13.2-3.8 3-2.6 4.5-6.2 4.5-10.9s-1.5-8.4-4.5-11c-3-2.5-7.4-3.8-13.2-3.8h-15.9v29.5h15.9ZM661.6 258.4H619l-8 19.6h-29l44.5-100.8h28L699.3 278h-29.6l-8-19.6Zm-8.3-21-13-32.3-13 32.3h26ZM789 199.8h-30.7V278h-28.1v-78.2h-31v-22.6h89.9v22.6ZM855.8 209.3c12.4 0 22 2.8 28.6 8.4 6.8 5.4 10.1 13.6 10.1 24.4 0 11.7-3.7 20.5-11.2 26.7A48 48 0 0 1 852 278h-47.6V177.2h28v32.1h23.4Zm-5.6 48.3a16 16 0 0 0 11.4-4 14 14 0 0 0 4.3-10.9c0-8.7-5.3-13-15.7-13h-17.7v27.9h17.7ZM109 292.4h789.1v7.2H109v-7.2ZM700.5 408.3c0-4.8 1-8.8 3.2-11.8 2.1-3.2 5.2-6.7 9.2-10.4 2.8-2.6 4.9-4.7 6.2-6.5 1.3-1.8 2-3.7 2-5.7 0-2.8-1.2-5-3.6-6.7a14.7 14.7 0 0 0-9-2.6c-3.9 0-7.4 1-10.6 2.8-3 1.8-5.5 4.4-7.5 7.6L669 363.5c4-6.7 9.5-12 16.7-15.7a55.9 55.9 0 0 1 26-5.6c11.5 0 20.7 2.4 27.6 7.2 7 4.7 10.5 11.3 10.5 19.9a26 26 0 0 1-7 18.1c-1.8 2-4.2 4.3-7.1 7a50.2 50.2 0 0 0-7.2 7.1c-1.6 2-2.3 4.2-2.3 6.8h-25.7Zm12.8 38c-4.7 0-8.5-1.4-11.6-4.3-3-3-4.6-6.6-4.6-10.8a14 14 0 0 1 4.4-10.7c3.1-2.8 7-4.2 11.8-4.2a17 17 0 0 1 11.9 4.2c3 2.8 4.6 6.4 4.6 10.7 0 4.2-1.6 7.8-4.6 10.8-3.1 2.9-7 4.3-11.9 4.3ZM670 459.4h86v7.2h-86v-7.2Z" fill="#222"/></svg>
